!!!!SEGMENT:pl-cz--i-155--001-001_anonim-partita-b-adagio.krn
!!!id: 18xx:2494
!!!COM: Anonim
!!!OTL: Partita B - Adagio
!!!PDT:
!!!SMS-siglum: PL-CZ
!!!SMS-shelfmark: I-155
!!!NIFC-rismID: 1001012507
!!!URL-scan: http://repozytorium.nifc.pl/skany/pl-cz-nut--i-155
!!!ONB-nifc: UWAGA: Parthia I (001), części: 1. Adagio, 2. Menuetto, 3. Adagio, 4. Allegro presto. Uwaga: 5 partii
!!!SMS-variant:
!!!SMS-altvar:
!!!OMD: Adagio
**kern	**kern	**kern	**dynam	**kern	**dynam	**kern	**dynam
*group2	*group2	*group1	*group1	*group1	*group1	*group1	*group1
*part5	*part4	*part3	*part3	*part2	*part2	*part1	*part1
*staff5	*staff4	*staff3	*	*staff2	*	*staff1	*
*I"Corno Secondo	*I"Corno Primo.	*I"Fagotto	*	*I"Clarinetto Secondo	*	*I"Clarinetto Primo	*
*I'cor 2	*I'cor 1	*I'fag	*	*I'cl 2	*	*I'cl 1	*
*clefG2	*clefG2	*clefF4	*	*clefG2	*	*clefG2	*
*ITrd1c2	*ITrd1c2	*	*	*ITrd1c2	*	*ITrd1c2	*
*k[b-e-]	*k[b-e-]	*k[b-e-]	*	*k[b-e-]	*	*k[b-e-]	*
*M3/4	*M3/4	*M3/4	*	*M3/4	*	*M3/4	*
*2\right	*2\right	*	*	*2\right	*	*2\right	*
!	!	!	!	!	!	!LO:TX:t=P:problem:all\right:global	!
!	!	!	!	!	!	!LO:N:vis=8	!LO:DY:b:t=p&colon;:rj
4r	4r	4r	.	4r	.	4f/	p
=1	=1	=1	=1	=1	=1	=1	=1
!	!	!	!LO:DY:b:t=p&colon;:rj	!	!LO:DY:a:t=p&colon;:rj	!	!
4d/	4b-\	4BB-/	p	8.d/L	p	8.b-\L	.
.	.	.	.	16f/Jk	.	16cc\Jk	.
*	*	*	*	*tremolo	*	*tremolo	*
4r	4r	8r	.	8b-\L	.	8dd\L	.
.	.	8BB-/L	.	8b-\	.	8dd\	.
4r	4r	8D/	.	8b-\	.	8dd\	.
.	.	8BB-/J	.	8b-\J	.	8dd\J	.
=2	=2	=2	=2	=2	=2	=2	=2
!	!	!	!	!	!LO:DY:b	!	!LO:DY:b:t=fo&colon;
.	.	.	.	8qqcc/	f	8qqee-/	f
4d/	4b-\	4F\	.	4b-\	.	4dd\	.
4f/	4cc\	4FF/	.	4a\	.	4cc\	.
4r	4r	4r	.	4r	.	8r	.
!	!	!	!	!	!	!	!LO:DY:b
.	.	.	.	.	.	8f/	p
=3	=3	=3	=3	=3	=3	=3	=3
!	!	!	!	!	!LO:DY:b:rj	!	!
4f/	4cc\	8F\	.	8.a\L	p	8.cc\L	.
.	.	4r	.	.	.	.	.
.	.	.	.	16b-\Jk	.	16dd\Jk	.
4r	4r	.	.	8cc\L	.	8ee-\L	.
.	.	8F\L	.	8cc\	.	8ee-\	.
4r	4r	8A\	.	8cc\	.	8ee-\	.
.	.	8F\J	.	8cc\J	.	8ee-\J	.
=4	=4	=4	=4	=4	=4	=4	=4
!	!	!	!	!	!LO:DY:b	!	!
.	.	.	.	8qqdd/	f	8qqff/	.
!	!	!	!	!	!	!	!LO:DY:b:t=fo
4F/	4f/	4B-\	.	4cc\	.	4ee-\	f
4F/	4f/	4BB-/	.	4b-\	.	8dd|>\L	.
!	!	!	!	!	!	!	!LO:DY:b
.	.	.	.	.	.	(>8f\	p
4r	4r	4r	.	4r	.	8b-\	.
.	.	.	.	.	.	8dd\J)	.
!	!	!LO:LB:g=original	!	!	!	!LO:LB:g=original	!
=5	=5	=5	=5	=5	=5	=5	=5
!	!	!LO:TX:t=P:problem:mixed beam	!	!	!	!	!
.	.	.	.	.	.	8qqgg/	.
!	!	!	!	!	!LO:DY:b:rj	!	!
4B-/	4d/	8BB-/L	.	4.d/	p	4.ff\	.
.	.	8B-\J	.	.	.	.	.
*	*	*2\right	*	*	*	*	*
*	*	*tremolo	*	*	*	*	*
4r	4r	8B-\L	.	.	.	.	.
.	.	8B-\	.	16e-/LL	.	16gg\LL	.
.	.	.	.	16d/JJ	.	16ff\JJ	.
!	!	!	!	!LO:LB:g=original	!	!	!
4r	4r	8B-\	.	16g/LL	.	16bb-\LL	.
.	.	.	.	16f/	.	16aa\	.
.	.	8B-\J	.	16e-/	.	16gg\	.
.	.	.	.	16d/JJ	.	16ff\JJ	.
=6	=6	=6	=6	=6	=6	=6	=6
.	.	.	.	.	.	16qqgg/	.
4B-/	4d/	8B-\L	.	4.d/	.	4.ff\	.
.	.	8B-\	.	.	.	.	.
4r	4r	8B-\	.	.	.	.	.
.	.	8B-\	.	16e-/LL	.	16bb-\LL	.
.	.	.	.	16d/JJ	.	16ff\JJ	.
4r	4r	8B-\	.	16g/LL	.	16bb-\LL	.
.	.	.	.	16f/	.	16aa\	.
.	.	8B-\J	.	16e-/	.	16gg\	.
.	.	.	.	16d/JJ	.	16ff\JJ	.
!LO:LB:g=original	!LO:LB:g=original	!	!	!	!	!	!
=7	=7	=7	=7	=7	=7	=7	=7
.	.	.	.	.	.	16qqgg/	.
4r	4r	4BB-/	.	4d/	.	8.ff\L	.
.	.	.	.	.	.	16ee-\Jk	.
4d/	4b-\	4F\	.	4b-\	.	4dd\	.
4f/	4cc\	4FF/	.	4a\	.	4ccT>\	.
=8	=8	=8	=8	=8	=8	=8	=8
4d/	4b-\	4BB-/	.	4b-\	.	4b-\	.
4r	4r	4r	.	4r	.	8r	.
.	.	.	.	.	.	8f\L	.
4r	4r	4r	.	4r	.	8b-\	.
.	.	.	.	.	.	8dd\J	.
=9	=9	=9	=9	=9	=9	=9	=9
!	!	!LO:TX:t=P:problem:brakujący takt?	!	!	!	!	!
.	.	.	.	.	.	16qqgg/	.
4B-/	4d/	2.ryy	.	4.d/	.	4.ff\	.
4r	4r	.	.	.	.	.	.
.	.	.	.	16e-/LL	.	16gg\LL	.
.	.	.	.	16d/JJ	.	16ff\JJ	.
4r	4r	.	.	16g/LL	.	16bb-\LL	.
.	.	.	.	16f/	.	16aa\	.
.	.	.	.	16e-/	.	16gg\	.
.	.	.	.	16d/JJ	.	16ff\JJ	.
!	!	!	!	!	!	!LO:LB:g=original	!
=10	=10	=10	=10	=10	=10	=10	=10
!	!	!LO:TX:t=P:problem:mixed beam	!	!	!	!	!
4B-/	4d/	8BB-/L	.	4.d/	.	4.ff\	.
.	.	8B-\J	.	.	.	.	.
4r	4r	8B-\L	.	.	.	.	.
.	.	8B-\	.	16e-/LL	.	16gg\LL	.
.	.	.	.	16d/JJ	.	16ff\JJ	.
4r	4r	8B-\	.	16g/LL	.	16bb-\LL	.
.	.	.	.	16f/	.	16aa\	.
.	.	8B-\J	.	16e-/	.	16gg\	.
.	.	.	.	16d/JJ	.	16ff\JJ	.
!	!	!	!	!LO:LB:g=original	!	!	!
=11	=11	=11	=11	=11	=11	=11	=11
4r	4r	4BB-/	.	4d/	.	8.ff\L	.
.	.	.	.	.	.	16ee-\Jk	.
4d/	4b-\	4F\	.	4b-\	.	4dd\	.
4f/	4cc\	4FF/	.	4a\	.	4ccT>\	.
=12	=12	=12	=12	=12	=12	=12	=12
4d/	4b-\	4BB-/	.	4b-\	.	4b-\	.
4r	4r	4r	.	4r	.	8r	.
*	*	*	*	*	*	*Xtremolo	*
.	.	.	.	.	.	8bb-\L	.
4r	4r	4r	.	4r	.	8bb-\	.
.	.	.	.	.	.	8bb-\J	.
=13	=13	=13	=13	=13	=13	=13	=13
4cc;<\	4cc;>\	4En;>\	.	4gg;>\	.	4bb-;;<\	.
4r	4r	4r	.	4r	.	8r	.
.	.	.	.	.	.	8eeX\L	.
4r	4r	4r	.	4r	.	8ee\	.
.	.	.	.	.	.	8ee\J	.
=14	=14	=14	=14	=14	=14	=14	=14
4cc;>\	4cc;>\	4G;>\	.	4b-;>\	.	4eeX;>\	.
4r	4r	4r	.	4r	.	8r	.
.	.	.	.	.	.	8bb-\L	.
4r	4r	4r	.	4r	.	8gg\	.
.	.	.	.	.	.	8ee\J	.
!	!	!LO:LB:g=original	!	!	!	!	!
=15	=15	=15	=15	=15	=15	=15	=15
2F;>/	2f;>/	2F;>\	.	2a;>\	.	2ff;>\	.
!	!	!	!	!	!	!LO:TX:b:i:t=15	!
4ryy	4ryy	4r	.	4r	.	4r	.
!LO:TX:b:i:t=15	!LO:TX:b:i:t=15	!	!	!LO:TX:b:i:t=15	!	!	!
!LO:LB:g=original	!LO:LB:g=original	!	!	!LO:LB:g=original	!	!LO:LB:g=original	!
=16||	=16||	=16||	=16||	=16||	=16||	=16||	=16||
*M4/4	*M4/4	*M4/4	*	*M4/4	*	*M4/4	*
*clefG2	*clefG2	*clefF4	*	*clefG2	*	*clefG2	*
*met(c)	*met(c)	*met(c)	*	*met(c)	*	*met(c)	*
*	*	*k[b-e-]	*	*	*	*	*
!	!	!LO:TX:a:t=P:problem:w źródle wpisano klucz barytonowy	!	!LO:TX:a:t=P:problem:oznczenie tempa (Allo) zanotowane w poprzedzającym systemie po podwójnej kresce taktowej systemie	!	!	!
!LO:TX:a:t=P:problem:kolejność:oznaczenie tempa, klucz, metrum	!LO:TX:a:t=P:problem:kolejność:oznaczenie tempa, klucz, metrum	!LO:TX:a:t=P:problem:kolejność:oznaczenie tempa, klucz, znaki przykluczowe, metrum	!	!LO:TX:a:t=P:problem:kolejność:klucz, metrum	!	!LO:TX:a:t=P:problem:kolejność:oznaczenie tempa, klucz, metrum	!
!LO:TX:a:B:t=Allo	!LO:TX:a:B:t=Allo	!LO:TX:a:B:t=Allo	!LO:DY:b:rj	!LO:TX:a:B:t=Allo	!	!LO:TX:a:B:t=Allo	!LO:DY:b
8b-\	8b-\	8B-\	p	8b-\	.	8b-\	p
8r	8r	8r	.	8r	.	8r	.
8f/	8f/	8F\	.	8f/	.	8f/	.
8r	8r	8r	.	8r	.	8r	.
8d/	8d/	8D\	.	8d/	.	8d/	.
8r	8r	8r	.	8r	.	8r	.
8f/	8f/	8F\	.	8f/	.	8f/	.
8r	8r	8r	.	8r	.	8r	.
=17	=17	=17	=17	=17	=17	=17	=17
2B-/	2b-\	8BB-/L	.	4b-\	.	4.b-\	.
.	.	8BB-/	.	.	.	.	.
.	.	8BB-/	.	4r	.	.	.
.	.	8BB-/J	.	.	.	16cc\LL	.
.	.	.	.	.	.	16a\JJ	.
2B-/	2b-\	8BB-/L	.	4.b-\	.	4.dd\	.
.	.	8BB-/	.	.	.	.	.
.	.	8BB-/	.	.	.	.	.
.	.	8BB-/J	.	16cc\LL	.	16ee-\LL	.
.	.	.	.	16a\JJ	.	16cc\JJ	.
=18	=18	=18	=18	=18	=18	=18	=18
2B-/	2b-\	8BB-/L	.	4.dd\	.	4.ff\	.
.	.	8BB-/	.	.	.	.	.
.	.	8BB-/	.	.	.	.	.
.	.	8BB-/J	.	16ee-\LL	.	16gg\LL	.
.	.	.	.	16cc\JJ	.	16ee-\JJ	.
*	*	*	*	*Xtremolo	*	*	*
!	!	!LO:TX:t=P:problem:mixed beam	!	!	!	!	!
4B-/	4b-\	8BB-/L	.	16d/LL	.	16ff\LL	.
.	.	.	.	16f/	.	16dd\	.
.	.	8BB-/	.	16d/	.	16ee-\	.
.	.	.	.	16f/JJ	.	16cc\JJ	.
4d/	4cc\	8F\	.	16e-/LL	.	16dd\LL	.
.	.	.	.	16f/	.	16b-\	.
.	.	8FF/J	.	16e-/	.	16cc\	.
.	.	.	.	16f/JJ	.	16a\JJ	.
!	!	!LO:LB:g=original	!	!	!	!LO:LB:g=original	!
=19	=19	=19	=19	=19	=19	=19	=19
2B-/	2b-\	8BB-/L	.	4d/	.	4.b-\	.
.	.	8BB-/	.	.	.	.	.
.	.	8BB-/	.	4r	.	.	.
.	.	8BB-/J	.	.	.	16cc\LL	.
.	.	.	.	.	.	16a\JJ	.
2B-/	2b-\	8BB-/L	.	4.b-\	.	4.dd\	.
.	.	8BB-/	.	.	.	.	.
.	.	8BB-/	.	.	.	.	.
.	.	8BB-/J	.	16cc\LL	.	16ee-\LL	.
.	.	.	.	16a\JJ	.	16cc\JJ	.
!	!	!	!	!LO:LB:g=original	!	!	!
=20	=20	=20	=20	=20	=20	=20	=20
2B-/	2b-\	8BB-/L	.	4.dd\	.	4.ff\	.
.	.	8BB-/	.	.	.	.	.
.	.	8BB-/	.	.	.	.	.
.	.	8BB-/J	.	16ee-\LL	.	16gg\LL	.
.	.	.	.	16cc\JJ	.	16ee-\JJ	.
!	!	!LO:TX:t=P:problem:mixed beam	!	!	!	!	!
4d/	4b-\	8BB-/L	.	16d/LL	.	16ff\LL	.
.	.	.	.	16f/	.	16dd\	.
.	.	8BB-/	.	16d/	.	16ee-\	.
.	.	.	.	16f/JJ	.	16cc\JJ	.
4f/	4cc\	8F\	.	16e-/LL	.	16dd\LL	.
.	.	.	.	16f/	.	16b-\	.
.	.	8FF/J	.	16e-/	.	16cc\	.
.	.	.	.	16f/JJ	.	16a\JJ	.
=21	=21	=21	=21	=21	=21	=21	=21
4d/	4b-\	4BB-/	.	4d/	.	4b-\	.
4r	4r	4r	.	4r	.	4r	.
!LO:LB:g=original	!	!	!	!	!	!	!
4f/	4cc\	2A\	.	8r	.	8r	.
!	!	!	!	!	!	!	!LO:DY:b:t=for
.	.	.	.	(>16cc\LL	.	(>16ee-\LL	f
.	.	.	.	16dd\JJ)	.	16ff\JJ)	.
4r	4r	.	.	8cc'>\L	.	8ee-'>\L	.
.	.	.	.	8cc'>\J	.	8ee-'>\J	.
!	!LO:LB:g=original	!	!	!	!	!	!
=22	=22	=22	=22	=22	=22	=22	=22
4d/	4b-\	2B-\	.	(>8cc\L	.	8ee-\L	.
.	.	.	.	8b-\J)	.	8dd\J	.
4r	4r	.	.	4b-\	.	4dd\	.
4f/	4cc\	2A\	.	8r	.	8r	.
.	.	.	.	(>16cc\LL	.	16ee-\LL	.
.	.	.	.	16dd\JJ)	.	16ff\JJ	.
4r	4r	.	.	8cc'>\L	.	8ee-\L	.
.	.	.	.	8cc'>\J	.	8ee-\J	.
!	!	!	!	!	!	!LO:LB:g=original	!
=23	=23	=23	=23	=23	=23	=23	=23
4d/	4b-\	2B-\	.	8cc\L	.	8ee-\L	.
.	.	.	.	8b-\J	.	8dd\J	.
4r	4r	.	.	4b-\	.	4dd\	.
2f/	2cc\	2A\	.	8r	.	8r	.
.	.	.	.	(>16cc\LL	.	16ee-\LL	.
.	.	.	.	16dd\JJ)	.	16ff\JJ	.
.	.	.	.	8cc'>\L	.	8ee-'>\L	.
.	.	.	.	8cc'>\J	.	8ee-'>\J	.
!	!	!	!	!LO:LB:g=original	!	!	!
=24	=24	=24	=24	=24	=24	=24	=24
4d/	4b-\	4B-\	.	4b-\	.	4dd\	.
4r	4r	4r	.	4r	.	16ff\LL	.
.	.	.	.	.	.	16dd\	.
.	.	.	.	.	.	16cc\	.
.	.	.	.	.	.	16b-\JJ	.
4f/	4cc\	4F\	.	4a\	.	4cc\	.
4r	4r	4r	.	4r	.	16ee-\LL	.
.	.	.	.	.	.	16cc\	.
.	.	.	.	.	.	16b-\	.
.	.	.	.	.	.	16a\JJ	.
=25	=25	=25	=25	=25	=25	=25	=25
4d/	4b-\	4BB-/	.	4b-\	.	4b-\	.
4r	4r	4r	.	4r	.	4r	.
4f/	4cc\	2A\	.	8r	.	8r	.
.	.	.	.	(>16cc\LL	.	16ee-\LL	.
.	.	.	.	16dd\JJ)	.	16ff\JJ)	.
4r	4r	.	.	8cc|>\L	.	8ee-'>\L	.
.	.	.	.	8cc|>\J	.	8ee-'>\J	.
=26	=26	=26	=26	=26	=26	=26	=26
4d/	4b-\	2B-\	.	8cc\L	.	8ee-\L	.
.	.	.	.	8b-\J	.	8dd\J	.
4r	4r	.	.	4b-\	.	4dd\	.
4f/	4cc\	2A\	.	8r	.	8r	.
.	.	.	.	(>16cc\LL	.	16ee-\LL	.
.	.	.	.	16dd\JJ)	.	16ff\JJ	.
4r	4r	.	.	8cc'>\L	.	8ee-\L	.
.	.	.	.	8cc'>\J	.	8ee-\J	.
!	!	!LO:LB:g=original	!	!	!	!LO:LB:g=original	!
=27	=27	=27	=27	=27	=27	=27	=27
4d/	4b-\	2B-\	.	8cc\L	.	8ee-\L	.
.	.	.	.	8b-\J	.	8dd\J	.
4r	4r	.	.	4b-\	.	4dd\	.
2f/	2cc\	2A\	.	8r	.	8r	.
.	.	.	.	(>16cc\LL	.	16ee-\LL	.
.	.	.	.	16dd\JJ)	.	16ff\JJ	.
.	.	.	.	8cc'>\L	.	8ee-\L	.
.	.	.	.	8cc'>\J	.	8ee-\J	.
!LO:LB:g=original	!	!	!	!LO:LB:g=original	!	!	!
=28	=28	=28	=28	=28	=28	=28	=28
4d/	4b-\	4B-\	.	4b-\	.	4dd\	.
4r	4r	4r	.	4r	.	16ff\LL	.
.	.	.	.	.	.	16dd\	.
.	.	.	.	.	.	16cc\	.
.	.	.	.	.	.	16b-\JJ	.
4f/	4cc\	4F\	.	4a\	.	4cc\	.
4r	4r	4r	.	4r	.	16ee-\LL	.
.	.	.	.	.	.	16cc\	.
.	.	.	.	.	.	16b-\	.
.	.	.	.	.	.	16a\JJ	.
!	!LO:LB:g=original	!	!	!	!	!	!
=29	=29	=29	=29	=29	=29	=29	=29
4d/	4b-\	4BB-/	.	4b-\	.	4b-\	.
4r	4r	8r	.	8r	.	8r	.
.	.	8FF/	.	16F/LL	.	8f/	.
.	.	.	.	16F/JJ	.	.	.
2r	2r	8BB-/L	.	8B-/L	.	16b-\LL	.
.	.	.	.	.	.	16dd\	.
.	.	8C/	.	8c/	.	16cc\	.
.	.	.	.	.	.	16ee-\JJ	.
.	.	8D/	.	8d/	.	16dd\LL	.
.	.	.	.	.	.	16ff\	.
.	.	8E-/J	.	8e-/J	.	16ee-\	.
.	.	.	.	.	.	16gg\JJ	.
=30	=30	=30	=30	=30	=30	=30	=30
4f/	4f/	4F\	.	4f/	.	4ff\	.
8d/L	8d/L	8D/L	.	8d/L	.	8dd\L	.
8B-/J	8B-/J	8BB-/J	.	8B-/J	.	8b-\J	.
!	!	!	!	!	!	!LO:LB:g=original	!
4f/	4f/	4F\	.	4f/	.	4ff\	.
8d/L	8d/L	8D/L	.	8d/L	.	8dd\L	.
8B-/J	8B-/J	8BB-/J	.	8B-/J	.	8b-\J	.
=31	=31	=31	=31	=31	=31	=31	=31
!LO:N:vis=2	!	!	!	!	!	!	!
1F;>	1f;>	1FF;>	.	1F;>	.	1f;>	.
*	*	*Xtremolo	*	*	*	*	*
=32	=32	=32	=32	=32	=32	=32	=32
!	!LO:N:vis=00	!	!	!	!LO:DY:a	!	!
*	*	*	*	*tremolo	*	*	*
4f/	00r	8f\L	.	8a\L	p	8.cc\L	.
.	.	8f\	.	8a\	.	.	.
.	.	.	.	.	.	16dd\Jk	.
4r	.	8f\	.	8a\	.	4cc\	.
.	.	8f\J	.	8a\J	.	.	.
*	*	*tremolo	*	*	*	*	*
2r	.	8f\L	.	8a\L	.	8r	.
.	.	8f\	.	8a\	.	8cc\L	.
.	.	8f\	.	8a\	.	8ff\	.
.	.	8f\J	.	8a\J	.	8aa\J	.
!	!	!LO:LB:g=original	!	!	!	!	!
=33	=33	=33	=33	=33	=33	=33	=33
1cc	.	8e-\L	.	8b-\L	.	8ff#X\L	.
.	.	8e-\	.	8b-\	.	8gg\J	.
.	.	8e-\	.	8b-\	.	4gg\	.
.	.	8e-\J	.	8b-\J	.	.	.
.	.	8e-\L	.	8g/L	.	16gg\LL	.
.	.	.	.	.	.	16ff\	.
.	.	8e-\	.	8g/	.	16eeX\	.
.	.	.	.	.	.	16dd\JJ	.
.	.	8e-\	.	8g/	.	16cc\LL	.
.	.	.	.	.	.	16b-\	.
.	.	8e-\J	.	8g/J	.	16a\	.
.	.	.	.	.	.	16g\JJ	.
!	!	!	!	!LO:LB:g=original	!	!LO:LB:g=original	!
=34	=34	=34	=34	=34	=34	=34	=34
4f/	.	8f\L	.	8a\L	.	16a\LL	.
.	.	.	.	.	.	16cc\	.
.	.	8f\	.	8a\	.	16dd\	.
.	.	.	.	.	.	16cc\JJ	.
4r	.	8f\	.	8a\	.	8cc\	.
.	.	8f\J	.	8a\J	.	4r	.
2r	.	8f\L	.	8a\L	.	.	.
.	.	8f\	.	8a\	.	8cc\L	.
.	.	8f\	.	8a\	.	8ff\	.
.	.	8f\J	.	8a\J	.	8aa\J	.
=35	=35	=35	=35	=35	=35	=35	=35
2cc\	.	8e-\L	.	8b-\L	.	8ff#X\L	.
.	.	8e-\	.	8b-\	.	8gg\J	.
.	.	8e-\	.	8b-\	.	4gg\	.
.	.	8e-\J	.	8b-\J	.	.	.
2cc\	.	8e-\L	.	8g/L	.	16gg\LL	.
.	.	.	.	.	.	16ff\	.
.	.	8e-\	.	8g/	.	16eeX\	.
.	.	.	.	.	.	16dd\JJ	.
.	.	8e-\	.	8g/	.	16cc\LL	.
.	.	.	.	.	.	16b-\	.
.	.	8e-\J	.	8g/J	.	16a\	.
.	.	.	.	.	.	16g\JJ	.
!LO:LB:g=original	!	!	!	!	!	!	!
=36	=36	=36	=36	=36	=36	=36	=36
!	!	!LO:TX:a:t=P:problem:znak początku repetycji	!	!	!	!	!
4f/	1f	4f\	.	4a\	.	4f/	.
4r	.	4r	.	4r	.	4r	.
!	!	!LO:TX:t=P:problem:mixed beam	!	!	!	!	!LO:DY:b:t=fo
2F/	.	8BB-/L	.	4.dd\	.	4.ff\	f
.	.	8F\	.	.	.	.	.
.	.	8F\	.	.	.	.	.
.	.	8F\J	.	16cc\LL	.	16eeX\LL	.
.	.	.	.	16b-\JJ	.	16dd\JJ	.
!	!	!	!	!	!	!LO:LB:g=original	!
=37	=37	=37	=37	=37	=37	=37	=37
!	!	!LO:TX:t=P:problem:mixed beam	!	!	!	!	!
2F/	2f/	8FF/L	.	4a\	.	4cc\	.
.	.	8F\	.	.	.	.	.
.	.	8F\	.	4r	.	4r	.
.	.	8F\J	.	.	.	.	.
!	!	!LO:TX:t=P:problem:mixed beam	!	!	!	!	!LO:DY:b
2F/	2f/	8FF/L	.	4.dd\	.	4.ff\	fz
.	.	8F\	.	.	.	.	.
.	.	8F\	.	.	.	.	.
.	.	8F\J	.	16cc\LL	.	16ee-\LL	.
.	.	.	.	16b-\JJ	.	16dd\JJ	.
=38	=38	=38	=38	=38	=38	=38	=38
!	!	!LO:TX:t=P:problem:mixed beam	!	!	!	!	!
2F/	2f/	8FF/L	.	4a\	.	4cc\	.
.	.	8F\	.	.	.	.	.
.	.	8F\	.	4r	.	4r	.
.	.	8F\J	.	.	.	.	.
!	!	!LO:TX:t=P:problem:mixed beam	!	!	!	!	!LO:DY:b
2F/	2f/	8FF/L	.	4.dd\	.	4.ff\	fz
.	.	8F\	.	.	.	.	.
.	.	8F\	.	.	.	.	.
.	.	8F\J	.	16cc\LL	.	16eeX\LL	.
.	.	.	.	16b-\JJ	.	16dd\JJ	.
!	!	!LO:LB:g=original	!	!	!	!	!
=39	=39	=39	=39	=39	=39	=39	=39
*	*	*	*	*Xtremolo	*	*	*
!	!	!	!	!	!	!	!LO:DY:b:rj
2F/	2f/	8F\	.	8a/L	.	8cc'>\L	p
.	.	8r	.	8a/	.	8cc'>\	.
.	.	8B-\	.	8g/	.	8b-'>\	.
.	.	8r	.	8g/J	.	8b-'>\J	.
2F/	2f/	8c\	.	8f/L	.	8a\L	.
.	.	8r	.	8f/	.	8a\	.
.	.	8C/	.	8eX/	.	8g\	.
!	!	!LO:TX:a:t=P:problem:znak końca repetycji	!	!	!	!	!
.	.	8r	.	8e/J	.	8g\J	.
!	!	!	!	!LO:LB:g=original	!	!	!
=40	=40	=40	=40	=40	=40	=40	=40
!	!	!LO:TX:a:t=P:problem:takty 40-43 zapisane repetycją	!	!	!	!	!
2F/	2f/	4f\yy	.	4f/	.	4f/	.
.	.	4ryy	.	4r	.	4r	.
!	!	!LO:TX:t=P:problem:mixed beam	!	!	!	!	!LO:DY:b:t=fo.
2F/	2f/	8BB-/Lyy	.	4.dd\	.	4.ff\	f
.	.	8F\yyyy	.	.	.	.	.
.	.	8F\yy	.	.	.	.	.
.	.	8F\Jyy	.	16cc\LL	.	16ee-\LL	.
.	.	.	.	16b-\JJ	.	16dd\JJ	.
!	!LO:LB:g=original	!	!	!	!	!LO:PB:g=original	!
=41	=41	=41	=41	=41	=41	=41	=41
!	!	!LO:TX:t=P:problem:mixed beam	!	!	!	!	!
2F/	2f/	8FF/Lyy	.	4a\	.	4cc\	.
.	.	8F\yy	.	.	.	.	.
.	.	8F\yy	.	4r	.	4r	.
.	.	8F\Jyy	.	.	.	.	.
!	!	!LO:TX:t=P:problem:mixed beam	!	!	!	!	!LO:DY:b
2F/	2f/	8FF/Lyy	.	4.dd\	.	4.ff\	fz
.	.	8F\yy	.	.	.	.	.
.	.	8F\yy	.	.	.	.	.
.	.	8F\Jyy	.	16cc\LL	.	16ee-\LL	.
.	.	.	.	16b-\JJ	.	16dd\JJ	.
=42	=42	=42	=42	=42	=42	=42	=42
!	!	!LO:TX:t=P:problem:mixed beam	!	!	!	!	!
2F/	2f/	8FF/Lyy	.	4a\	.	4cc\	.
.	.	8F\yy	.	.	.	.	.
.	.	8F\yy	.	4r	.	4r	.
.	.	8F\Jyy	.	.	.	.	.
!	!	!LO:TX:t=P:problem:mixed beam	!	!	!	!	!LO:DY:b
2F/	2f/	8FF/Lyy	.	4.dd\	.	4.ff\	fz
.	.	8F\yy	.	.	.	.	.
.	.	8F\yy	.	.	.	.	.
.	.	8F\Jyy	.	16cc\LL	.	16ee-\LL	.
.	.	.	.	16b-\JJ	.	16dd\JJ	.
=43	=43	=43	=43	=43	=43	=43	=43
4F/	4f/	8F\yy	.	8a/L	.	8cc\L	.
.	.	8ryy	.	8a/	.	8cc\	.
4r	4r	8B-\yy	.	8g/	.	8b-\	.
.	.	8ryy	.	8g/J	.	8b-\J	.
8cc\	8cc\	8c\yy	.	8f/L	.	8a\L	.
8r	8r	8ryy	.	8f/	.	8a\	.
8cc\	8cc\	8C/yy	.	8e-/	.	8g\	.
8r	8r	8ryy	.	8e-/J	.	8g\J	.
!LO:LB:g=original	!	!	!	!	!	!	!
=44	=44	=44	=44	=44	=44	=44	=44
4f/	4f/	4F\	.	4f/	.	4f/	.
4r	4r	4r	.	4r	.	4r	.
*	*	*Xtremolo	*	*	*	*Xtremolo	*
2r	2r	8c\L	.	2r	.	8cc\L	.
.	.	8c\	.	.	.	8cc\	.
.	.	8c\	.	.	.	8cc\	.
.	.	8c\J	.	.	.	8cc\J	.
!	!	!	!	!	!	!LO:LB:g=original	!
=45	=45	=45	=45	=45	=45	=45	=45
!LO:N:vis=00	!LO:N:vis=00	!	!	!LO:TX:a:t=4	!	!	!
!	!	!	!	!LO:N:vis=00	!	!	!
00r	00r	16A\LL	.	00r	.	16a\LL	.
.	.	16B-\	.	.	.	16b-\	.
.	.	16c\	.	.	.	16cc\	.
.	.	16A\JJ	.	.	.	16a\JJ	.
.	.	8F\L	.	.	.	8f\L	.
.	.	8f\J	.	.	.	8ff\J	.
.	.	8d\L	.	.	.	8dd\L	.
.	.	8d\	.	.	.	8dd\	.
.	.	8B-\	.	.	.	8b-\	.
.	.	8B-\J	.	.	.	8b-\J	.
=46	=46	=46	=46	=46	=46	=46	=46
.	.	8G\L	.	.	.	8g/L	.
.	.	8G\J	.	.	.	8g/J	.
.	.	16c\LL	.	.	.	(>16cc\LL	.
.	.	16B-\	.	.	.	16b-\	.
.	.	16A\	.	.	.	16a\	.
.	.	16G\JJ	.	.	.	16g\JJ)	.
*	*	*tremolo	*	*	*	*	*
.	.	8c\L	.	.	.	8cc\L	.
.	.	8c\	.	.	.	8cc\	.
.	.	8c\	.	.	.	8cc\	.
.	.	8c\J	.	.	.	8cc\J	.
*	*	*Xtremolo	*	*	*	*	*
!	!	!LO:LB:g=original	!	!	!	!	!
=47	=47	=47	=47	=47	=47	=47	=47
.	.	16A\LL	.	.	.	16a\LL	.
.	.	16B-\	.	.	.	16b-\	.
.	.	16c\	.	.	.	16cc\	.
.	.	16A\JJ	.	.	.	16a\JJ	.
.	.	8F\L	.	.	.	8f\L	.
.	.	8f\J	.	.	.	8ff\J	.
.	.	8d\L	.	.	.	8dd\L	.
.	.	8d\	.	.	.	8dd\	.
.	.	8B-\	.	.	.	8b-\	.
.	.	8B-\J	.	.	.	8b-\J	.
!	!	!	!	!	!	!LO:LB:g=original	!
=48	=48	=48	=48	=48	=48	=48	=48
.	.	8G\L	.	.	.	8g/L	.
.	.	8G\J	.	.	.	8g/J	.
.	.	16c\LL	.	.	.	(>16cc\LL	.
.	.	16B-\	.	.	.	16b-\	.
.	.	16A\	.	.	.	16a\	.
.	.	16G\JJ	.	.	.	16g\JJ)	.
.	.	4F\	.	.	.	4f/	.
.	.	4r	.	.	.	4r	.
!	!	!	!	!LO:LB:g=original	!	!	!
=49	=49	=49	=49	=49	=49	=49	=49
*	*	*tremolo	*	*	*	*	*
!	!	!	!	!	!LO:DY:b:rj	!	!
1F	1f	8A\L	.	1f	f	16ff\LL	.
.	.	.	.	.	.	16gg\	.
.	.	8A\	.	.	.	16ff\	.
.	.	.	.	.	.	16eeX\JJ	.
.	.	8A\	.	.	.	16ff\LL	.
.	.	.	.	.	.	16gg\	.
.	.	8A\J	.	.	.	16ff\	.
.	.	.	.	.	.	16ee\JJ	.
.	.	8A\L	.	.	.	4ff\	.
.	.	8A\	.	.	.	.	.
.	.	8A\	.	.	.	4r	.
.	.	8A\J	.	.	.	.	.
=50	=50	=50	=50	=50	=50	=50	=50
1F	1f	8B-\L	.	1f	.	16dd\LL	.
.	.	.	.	.	.	16ee-X\	.
.	.	8B-\	.	.	.	16dd\	.
.	.	.	.	.	.	16cc#X\JJ	.
.	.	8B-\	.	.	.	16dd\LL	.
.	.	.	.	.	.	16ee-\	.
.	.	8B-\J	.	.	.	16dd\	.
.	.	.	.	.	.	16cc#\JJ	.
.	.	8B-\L	.	.	.	4dd\	.
.	.	8B-\	.	.	.	.	.
.	.	8B-\	.	.	.	4r	.
.	.	8B-\J	.	.	.	.	.
!	!	!	!	!	!	!LO:LB:g=original	!
=51	=51	=51	=51	=51	=51	=51	=51
!	!	!	!	!	!LO:DY:b	!	!
4F/	4f/	8A\	.	8a/	p	8cc\L	.
.	.	8r	.	8r	.	8a\	.
4r	4r	8B-\	.	8g/	.	8b-\	.
.	.	8r	.	8r	.	8g\J	.
8cc\	8cc\	8c\	.	8f/	.	8a\L	.
8r	8r	8r	.	8r	.	8f\	.
8cc\	8cc\	8C/	.	8e-/	.	8g\	.
8r	8r	8r	.	8r	.	8eX\J	.
!	!LO:LB:g=original	!LO:LB:g=original	!	!	!	!	!
=52	=52	=52	=52	=52	=52	=52	=52
!	!	!	!	!	!LO:DY:b:rj	!	!
1F	1f	8A\L	.	1f	f	16ff\LL	.
.	.	.	.	.	.	16gg\	.
.	.	8A\	.	.	.	16ff\	.
.	.	.	.	.	.	16eeX\JJ	.
.	.	8A\	.	.	.	16ff\LL	.
.	.	.	.	.	.	16gg\	.
.	.	8A\J	.	.	.	16ff\	.
.	.	.	.	.	.	16ee\JJ	.
.	.	8A\L	.	.	.	4ff\	.
.	.	8A\	.	.	.	.	.
.	.	8A\	.	.	.	4r	.
.	.	8A\J	.	.	.	.	.
=53	=53	=53	=53	=53	=53	=53	=53
1F	1f	8B-\L	.	1f	.	16dd\LL	.
.	.	.	.	.	.	16ee-X\	.
.	.	8B-\	.	.	.	16dd\	.
.	.	.	.	.	.	16cc#X\JJ	.
.	.	8B-\	.	.	.	16dd\LL	.
.	.	.	.	.	.	16ee-\	.
.	.	8B-\J	.	.	.	16dd\	.
.	.	.	.	.	.	16cc#\JJ	.
.	.	8B-\L	.	.	.	4dd\	.
.	.	8B-\	.	.	.	.	.
.	.	8B-\	.	.	.	4r	.
.	.	8B-\J	.	.	.	.	.
!	!	!	!	!	!	!LO:LB:g=original	!
=54	=54	=54	=54	=54	=54	=54	=54
!	!	!	!	!	!LO:DY:b	!	!
4F/	4f/	8A\	.	8a/	p	8cc\L	.
.	.	8r	.	8r	.	8a\	.
4r	4r	8B-\	.	8g/	.	8b-\	.
.	.	8r	.	8r	.	8g\J	.
8cc\	8cc\	8c\	.	8f/	.	8a/L	.
8r	8r	8r	.	8r	.	8f/	.
8cc\	8cc\	8C/	.	8e-/	.	8g/	.
8r	8r	8r	.	8r	.	8eX/J	.
!LO:LB:g=original	!	!	!	!	!	!	!
=55	=55	=55	=55	=55	=55	=55	=55
!	!	!	!	!	!LO:DY:b:t=for	!	!
8f/	4f/	8F\	.	4f/	f	8f/	.
8r	.	8r	.	.	.	8r	.
8f/	4f/	8F\	.	4f/	.	8f/	.
8r	.	8r	.	.	.	8r	.
4f/	4f/	4FF/	.	4f/	.	8f/	.
.	.	.	.	.	.	8r	.
!	!LO:TX:b:i:t=40	!	!	!	!	!LO:TX:i:b:t=Volti Cito.	!
4r	4r	4r	.	4r	.	4r	.
!LO:TX:b:i:t=40	!	!LO:TX:b:i:t=40	!	!LO:TX:b:i:t=40	!	!LO:TX:b:i:t=40	!
!	!	!	!	!LO:PB:g=original	!	!LO:PB:g=original	!
=56:|!|:	=56:|!|:	=56:|!|:	=56:|!|:	=56:|!|:	=56:|!|:	=56:|!|:	=56:|!|:
*	*	*	*	*	*	*tremolo	*
!LO:N:vis=0	!LO:N:vis=0	!	!	!LO:N:vis=0	!	!LO:TX:a:t=P:problem:4 kreski nad nutą	!LO:DY:b
0r	0r	8f\L	.	0r	.	8ff|>\LL	p
.	.	.	.	.	.	.	.
.	.	8f\	.	.	.	8ff|>\	.
.	.	.	.	.	.	.	.
.	.	8f\	.	.	.	8ff|>\	.
.	.	.	.	.	.	.	.
.	.	8f\J	.	.	.	8ff|>\JJ	.
.	.	.	.	.	.	.	.
.	.	16d\LL	.	.	.	(>16dd\LL	.
.	.	16e-\	.	.	.	16ee-X\	.
.	.	16f\	.	.	.	16ff\	.
.	.	16d\JJ	.	.	.	16dd\JJ)	.
!	!	!LO:LB:g=original	!	!	!	!	!
.	.	16d-X\LL	.	.	.	(>16b-\LL	.
.	.	16c\	.	.	.	16cc\	.
.	.	16d-\	.	.	.	16dd\	.
.	.	16B-\JJ	.	.	.	16b-\JJ)	.
=57	=57	=57	=57	=57	=57	=57	=57
.	.	8e-\L	.	.	.	8ee-X\LL	.
.	.	.	.	.	.	.	.
.	.	8e-\	.	.	.	8ee-\	.
.	.	.	.	.	.	.	.
.	.	8e-\	.	.	.	8ee-\	.
.	.	.	.	.	.	.	.
.	.	8e-\J	.	.	.	8ee-\JJ	.
.	.	.	.	.	.	.	.
.	.	16c\LL	.	.	.	16cc\LL	.
.	.	16d\	.	.	.	16dd\	.
.	.	16e-\	.	.	.	16ee-\	.
.	.	16c\JJ	.	.	.	16cc\JJ	.
.	.	16A\LL	.	.	.	16a\LL	.
.	.	16B-\	.	.	.	16b-\	.
.	.	16c\	.	.	.	16cc\	.
.	.	16A\JJ	.	.	.	16a\JJ	.
=58	=58	=58	=58	=58	=58	=58	=58
4d/	4b-\	4B-\	.	4dd\	.	8b-\L	.
.	.	.	.	.	.	16cc\L	.
.	.	.	.	.	.	16dd\JJ	.
4r	4r	4r	.	4r	.	16ee-\LL	.
.	.	.	.	.	.	16ff\	.
.	.	.	.	.	.	16gg\	.
.	.	.	.	.	.	16aa\JJ	.
4d/	4b-\	4BB-/	.	4dd\	.	16bb-\LL	.
.	.	.	.	.	.	16aa\	.
.	.	.	.	.	.	16gg\	.
.	.	.	.	.	.	16ff\JJ	.
4r	4r	4r	.	4r	.	16ee-\LL	.
.	.	.	.	.	.	16dd\	.
.	.	.	.	.	.	16cc\	.
.	.	.	.	.	.	16b-\JJ	.
!	!	!	!	!	!	!LO:LB:g=original	!
=59	=59	=59	=59	=59	=59	=59	=59
!	!	!	!	!	!	!	!LO:DY:b:t=fo
1f	1cc	8r	.	8dd\L	.	8ff\L	f
*	*	*Xtremolo	*	*	*	*	*
.	.	8F\L	.	8cc\J	.	8ee-\J	.
.	.	8F\	.	4cc\	.	4ee-\	.
.	.	8F\J	.	.	.	.	.
*	*	*tremolo	*	*	*	*	*
.	.	8F\L	.	2a\	.	16f/LL	.
!	!	!	!	!	!	!	!LO:DY:b
.	.	.	.	.	.	16g/	p
.	.	8F\	.	.	.	16a/	.
.	.	.	.	.	.	16b-/JJ	.
.	.	8F\	.	.	.	16cc\LL	.
.	.	.	.	.	.	16dd\	.
.	.	8F\J	.	.	.	16ee-\	.
.	.	.	.	.	.	16cc\JJ	.
!	!LO:LB:g=original	!	!	!	!	!	!
=60	=60	=60	=60	=60	=60	=60	=60
4d/	4b-\	4B-\	.	4b-\	.	16dd\LL	.
.	.	.	.	.	.	16b-\	.
.	.	.	.	.	.	16cc\	.
.	.	.	.	.	.	16dd\JJ	.
4r	4r	4r	.	4r	.	16ee-\LL	.
.	.	.	.	.	.	16ff\	.
.	.	.	.	.	.	16gg\	.
.	.	.	.	.	.	16aa\JJ	.
4d/	4b-\	4BB-/	.	4dd\	.	16bb-\LL	.
.	.	.	.	.	.	16aa\	.
.	.	.	.	.	.	16gg\	.
.	.	.	.	.	.	16ff\JJ	.
4r	4r	4r	.	4r	.	16ee-\LL	.
.	.	.	.	.	.	16dd\	.
.	.	.	.	.	.	16cc\	.
.	.	.	.	.	.	16b-\JJ	.
!	!	!LO:PB:g=original	!	!	!	!	!
=61	=61	=61	=61	=61	=61	=61	=61
!	!	!	!	!	!	!	!LO:DY:b:t=fo
1f	1cc	8r	.	8dd\L	.	8ff\L	f
*	*	*Xtremolo	*	*	*	*	*
.	.	8F\L	.	8cc\J	.	8ee-\J	.
.	.	8F\	.	4cc\	.	4ee-\	.
.	.	8F\J	.	.	.	.	.
*	*	*tremolo	*	*	*	*	*
.	.	8F\L	.	2a\	.	16f/LL	.
!	!	!	!	!	!	!	!LO:DY:b:t=p.
.	.	.	.	.	.	16g/	p
.	.	8F\	.	.	.	16a/	.
.	.	.	.	.	.	16b-/JJ	.
.	.	8F\	.	.	.	16cc\LL	.
.	.	.	.	.	.	16dd\	.
.	.	8F\J	.	.	.	16ee-\	.
.	.	.	.	.	.	16cc\JJ	.
!	!	!	!	!	!	!LO:LB:g=original	!
=62	=62	=62	=62	=62	=62	=62	=62
4d/	4b-\	4B-\	.	4b-\	.	16dd\LL	.
.	.	.	.	.	.	16b-\	.
.	.	.	.	.	.	16cc\	.
.	.	.	.	.	.	16dd\JJ	.
4r	4r	4r	.	4r	.	16ee-\LL	.
.	.	.	.	.	.	16ff\	.
.	.	.	.	.	.	16gg\	.
.	.	.	.	.	.	16aa\JJ	.
2r	2r	2r	.	4dd\	.	16bb-\LL	.
.	.	.	.	.	.	16aa\	.
.	.	.	.	.	.	16gg\	.
.	.	.	.	.	.	16ff\JJ	.
.	.	.	.	4r	.	16ee-\LL	.
.	.	.	.	.	.	16dd\	.
.	.	.	.	.	.	16cc\	.
.	.	.	.	.	.	16b-\JJ	.
=63	=63	=63	=63	=63	=63	=63	=63
!	!	!	!	!	!	!	!LO:DY:b:t=fo
1f	1cc	8r	.	8dd\L	.	8ff\L	f
*	*	*Xtremolo	*	*	*	*	*
.	.	8F\L	.	8cc\J	.	8ee-\J	.
.	.	8F\	.	4cc\	.	4ee-\	.
.	.	8F\J	.	.	.	.	.
*	*	*tremolo	*	*	*	*	*
.	.	8F\L	.	2a\	.	16f/LL	.
!	!	!	!	!	!	!	!LO:DY:b
.	.	.	.	.	.	16g/	p
.	.	8F\	.	.	.	16a/	.
.	.	.	.	.	.	16b-/JJ	.
.	.	8F\	.	.	.	16cc\LL	.
.	.	.	.	.	.	16dd\	.
.	.	8F\J	.	.	.	16ee-\	.
.	.	.	.	.	.	16cc\JJ	.
!LO:LB:g=original	!	!	!	!LO:LB:g=original	!	!	!
=64	=64	=64	=64	=64	=64	=64	=64
4d/	4b-\	4B-\	.	4b-\	.	8dd\L	.
.	.	.	.	.	.	8ee-\	.
4r	4r	4r	.	4r	.	8ff\	.
.	.	.	.	.	.	8ff#X\J	.
2r	2r	2r	.	2r	.	8gg\L	.
.	.	.	.	.	.	8ee-\	.
.	.	.	.	.	.	8cc\	.
.	.	.	.	.	.	8a\J	.
!	!	!	!	!	!	!LO:LB:g=original	!
=65	=65	=65	=65	=65	=65	=65	=65
!	!	!	!	!	!	!	!LO:DY:b:t=fo
8b-\	8b-\	8B-\	.	8b-\	.	8b-\	f
8r	8r	8r	.	8r	.	8r	.
8f/	8f/	8F\	.	8f/	.	8f/	.
8r	8r	8r	.	8r	.	8r	.
8d/	8d/	8D\	.	8d/	.	8d/	.
8r	8r	8r	.	8r	.	8r	.
8f/	8f/	8F\	.	8f/	.	8f/	.
8r	8r	8r	.	8r	.	8r	.
!	!	!LO:LB:g=original	!	!	!	!	!
=66	=66	=66	=66	=66	=66	=66	=66
2B-/	2b-\	8BB-/L	.	4b-\	.	4.b-\	.
.	.	8BB-/	.	.	.	.	.
.	.	8BB-/	.	4r	.	.	.
.	.	8BB-/J	.	.	.	16cc\LL	.
.	.	.	.	.	.	16a\JJ	.
2B-/	2b-\	8BB-/L	.	4.b-\	.	4.dd\	.
.	.	8BB-/	.	.	.	.	.
.	.	8BB-/	.	.	.	.	.
.	.	8BB-/J	.	16cc\LL	.	16ee-\LL	.
.	.	.	.	16a\JJ	.	16cc\JJ	.
!	!LO:LB:g=original	!	!	!	!	!	!
=67	=67	=67	=67	=67	=67	=67	=67
2B-/	2b-\	8BB-/L	.	4.dd\	.	4.ff\	.
.	.	8BB-/	.	.	.	.	.
.	.	8BB-/	.	.	.	.	.
.	.	8BB-/J	.	16ee-\LL	.	16gg\LL	.
.	.	.	.	16cc\JJ	.	16ee-\JJ	.
!	!	!LO:TX:t=P:problem:mixed beam	!	!	!	!	!
4d/	4b-\	8BB-/L	.	16d/LL	.	16ff\LL	.
.	.	.	.	16f/	.	16dd\	.
.	.	8BB-/	.	16d/	.	16ee-\	.
.	.	.	.	16f/JJ	.	16cc\JJ	.
4f/	4cc\	8F\	.	16e-/LL	.	16dd\LL	.
.	.	.	.	16f/	.	16b-\	.
.	.	8FF/J	.	16e-/	.	16cc\	.
.	.	.	.	16f/JJ	.	16a\JJ	.
=68	=68	=68	=68	=68	=68	=68	=68
2B-/	2b-\	8BB-/L	.	4d/	.	4.b-\	.
.	.	8BB-/	.	.	.	.	.
.	.	8BB-/	.	4r	.	.	.
.	.	8BB-/J	.	.	.	16cc\LL	.
.	.	.	.	.	.	16a\JJ	.
!	!	!	!	!	!	!LO:LB:g=original	!
2B-/	2b-\	8BB-/L	.	4.dd\	.	4.dd\	.
.	.	8BB-/	.	.	.	.	.
.	.	8BB-/	.	.	.	.	.
!	!	!	!	!LO:LB:g=original	!	!	!
.	.	8BB-/J	.	16cc\LL	.	16ee-\LL	.
.	.	.	.	16a\JJ	.	16cc\JJ	.
=69	=69	=69	=69	=69	=69	=69	=69
2B-/	2b-\	8BB-/L	.	4.dd\	.	4.ff\	.
.	.	8BB-/	.	.	.	.	.
.	.	8BB-/	.	.	.	.	.
.	.	8BB-/J	.	16ee-\LL	.	16gg\LL	.
.	.	.	.	16cc\JJ	.	16ee-\JJ	.
!	!	!LO:TX:t=P:problem:mixed beam	!	!	!	!	!
4d/	4b-\	8BB-/L	.	16d/LL	.	16ff\LL	.
.	.	.	.	16f/	.	16dd\	.
.	.	8BB-/	.	16d/	.	16ee-\	.
.	.	.	.	16f/JJ	.	16cc\JJ	.
4f/	4cc\	8F\	.	16e-/LL	.	16dd\LL	.
.	.	.	.	16f/	.	16b-\	.
.	.	8FF/J	.	16e-/	.	16cc\	.
.	.	.	.	16f/JJ	.	16a\JJ	.
=70	=70	=70	=70	=70	=70	=70	=70
!	!	!	!	!LO:TX:a:t=P:problem:znak początku repetycji	!	!LO:TX:a:t=P:problem:znak początku repetycji	!
4d/	4b-\	4BB-/	.	4b- 4d/	.	4b-\	.
4r	4r	4r	.	4r	.	4r	.
4f/	4cc\	2A\	.	8r	.	8r	.
.	.	.	.	(>16cc\LL	.	(>16ee-\LL	.
.	.	.	.	16dd\JJ)	.	16ff\JJ)	.
*	*	*	*	*	*	*Xtremolo	*
4r	4r	.	.	8cc'>\L	.	8ee-'>\L	.
.	.	.	.	8cc'>\J	.	8ee-'>\J	.
!LO:LB:g=original	!	!	!	!	!	!	!
=71	=71	=71	=71	=71	=71	=71	=71
4d/	4b-\	2B-\	.	8cc\L	.	8ee-\L	.
.	.	.	.	8b-\J	.	8dd\J	.
4r	4r	.	.	4b-\	.	4dd\	.
4f/	4cc\	2A\	.	8r	.	8r	.
.	.	.	.	(>16cc\LL	.	(>16ee-\LL	.
.	.	.	.	16dd\JJ)	.	16ff\JJ)	.
4r	4r	.	.	8cc\L	.	8ee-'>\L	.
.	.	.	.	8cc\J	.	8ee-'>\J	.
=72	=72	=72	=72	=72	=72	=72	=72
4d/	4b-\	2B-\	.	8cc\L	.	8ee-\L	.
.	.	.	.	8b-\J	.	8dd\J	.
4r	4r	.	.	4b-\	.	4dd\	.
!	!	!	!	!LO:LB:g=original	!	!LO:LB:g=original	!
2f/	2cc\	2A\	.	8r	.	8r	.
.	.	.	.	(>16cc\LL	.	(>16ee-\LL	.
.	.	.	.	16dd\JJ)	.	16ff\JJ)	.
.	.	.	.	8cc'>\L	.	8ee-'>\L	.
.	.	.	.	8cc'>\J	.	8ee-'>\J	.
!	!	!LO:LB:g=original	!	!	!	!	!
=73	=73	=73	=73	=73	=73	=73	=73
4d/	4b-\	4B-\	.	4b-\	.	4dd\	.
4r	4r	4r	.	4r	.	16ff\LL	.
.	.	.	.	.	.	16dd\	.
.	.	.	.	.	.	16cc\	.
.	.	.	.	.	.	16b-\JJ	.
4f/	4cc\	4F\	.	4a\	.	4cc\	.
!	!	!	!	!LO:TX:a:t=P:problem:znak końca repetycji	!	!	!
4r	4r	4r	.	4r	.	16ee-\LL	.
.	.	.	.	.	.	16cc\	.
.	.	.	.	.	.	16b-\	.
!	!	!	!	!	!	!LO:TX:a:t=P:problem:znak końca repetycji	!
.	.	.	.	.	.	16a\JJ	.
!	!LO:LB:g=original	!	!	!	!	!	!
=74	=74	=74	=74	=74	=74	=74	=74
!	!	!	!	!LO:TX:a:t=P:problem:takty 74-77 zapisane repetycją	!	!LO:TX:a:t=P:problem:takty 74-77 zapisane repetycją	!
4d/	4b-\	4BB-/	.	4b-yy 4d/yy	.	4b-\yy	.
4r	4r	4r	.	4ryy	.	4ryy	.
4f/	4cc\	2A\	.	8ryy	.	8ryy	.
.	.	.	.	(>16cc\LLyy	.	(>16ee-\LLyy	.
.	.	.	.	16dd\JJ)yy	.	16ff\JJ)yy	.
4r	4r	.	.	8cc'>\Lyy	.	8ee-'>\Lyy	.
.	.	.	.	8cc'>\Jyy	.	8ee-'>\Jyy	.
=75	=75	=75	=75	=75	=75	=75	=75
4d/	4b-\	2B-\	.	8cc\Lyy	.	8ee-\Lyy	.
.	.	.	.	8b-\Jyy	.	8dd\Jyy	.
4r	4r	.	.	4b-\yy	.	4dd\yy	.
4f/	4cc\	2A\	.	8ryy	.	8ryy	.
.	.	.	.	(>16cc\LLyy	.	(>16ee-\LLyy	.
.	.	.	.	16dd\JJ)yy	.	16ff\JJ)yy	.
4r	4r	.	.	8cc\Lyy	.	8ee-'>\Lyy	.
.	.	.	.	8cc\Jyy	.	8ee-'>\Jyy	.
=76	=76	=76	=76	=76	=76	=76	=76
4d/	4b-\	2B-\	.	8cc\Lyy	.	8ee-\Lyy	.
.	.	.	.	8b-\Jyy	.	8dd\Jyy	.
4r	4r	.	.	4b-\yy	.	4dd\yy	.
2f/	2cc\	2A\	.	8ryy	.	8ryy	.
.	.	.	.	(>16cc\LLyy	.	(>16ee-\LLyy	.
.	.	.	.	16dd\JJ)yy	.	16ff\JJ)yy	.
.	.	.	.	8cc'>\Lyy	.	8ee-'>\Lyy	.
.	.	.	.	8cc'>\Jyy	.	8ee-'>\Jyy	.
!LO:PB:g=original	!	!	!	!	!	!	!
=77	=77	=77	=77	=77	=77	=77	=77
4d/	4b-\	4B-\	.	4b-\yy	.	4dd\yy	.
4r	4r	4r	.	4ryy	.	16ff\LLyy	.
.	.	.	.	.	.	16dd\yy	.
.	.	.	.	.	.	16cc\yy	.
.	.	.	.	.	.	16b-\JJyy	.
4f/	4cc\	4F\	.	4a\yy	.	4cc\yy	.
4r	4r	4r	.	4ryy	.	16ee-\LLyy	.
.	.	.	.	.	.	16cc\yy	.
.	.	.	.	.	.	16b-\yy	.
.	.	.	.	.	.	16a\JJyy	.
=78	=78	=78	=78	=78	=78	=78	=78
4d/	4b-\	4BB-/	.	4b-\	.	4b-\	.
4r	4r	8r	.	8r	.	8r	.
.	.	8FF/	.	8F/	.	8f/	.
2r	2r	8BB-/L	.	8B-/L	.	16b-\LL	.
.	.	.	.	.	.	16dd\	.
.	.	8C/	.	8c/	.	16cc\	.
.	.	.	.	.	.	16ee-\JJ	.
.	.	8D/	.	8d/	.	16dd\LL	.
.	.	.	.	.	.	16ff\	.
.	.	8E-/J	.	8e-/J	.	16ee-\	.
.	.	.	.	.	.	16gg\JJ	.
!	!	!LO:LB:g=original	!	!	!	!	!
=79	=79	=79	=79	=79	=79	=79	=79
4f/	4f/	4F\	.	4f/	.	4ff\	.
8d/L	8d/L	8D/L	.	8d/L	.	8dd\L	.
8B-/J	8B-/J	8BB-/J	.	8B-/J	.	8b-\J	.
4f/	8f/L	4F\	.	4f/	.	4ff\	.
.	8d/J	.	.	.	.	.	.
8d/L	4B-/	8D/L	.	8d/L	.	8dd\L	.
8B-/J	.	8BB-/J	.	8B-/J	.	8b-\J	.
!	!LO:PB:g=original	!	!	!	!	!LO:LB:g=original	!
=80	=80	=80	=80	=80	=80	=80	=80
1F;>	1f;>	1FF;>	.	1F;>	.	1f;>	.
=81	=81	=81	=81	=81	=81	=81	=81
!	!	!	!LO:DY:b:rj	!	!LO:DY:b:rj	!	!
*	*	*	*	*tremolo	*	*	*
!	!	!	!	!	!	!	!LO:DY:b
4B-/	4b-\	8B-\L	p	8d/L	p	8.f/L	p
.	.	8B-\	.	8d/	.	.	.
.	.	.	.	.	.	16g/Jk	.
4r	4r	8B-\	.	8d/	.	4f/	.
.	.	8B-\J	.	8d/J	.	.	.
2r	2r	8B-\L	.	8d/L	.	8r	.
.	.	8B-\	.	8d/	.	8f\L	.
.	.	8B-\	.	8d/	.	8b-\	.
.	.	8B-\J	.	8d/J	.	8dd\J	.
!	!	!	!	!LO:LB:g=original	!	!	!
=82	=82	=82	=82	=82	=82	=82	=82
!	!LO:N:vis=0	!	!	!	!	!	!
1F	0r	8A\L	.	8e-/L	.	8bX\L	.
.	.	8A\	.	8e-/	.	8cc\J	.
.	.	8A\	.	8e-/	.	4cc\	.
.	.	8A\J	.	8e-/J	.	.	.
.	.	8A\L	.	8c/L	.	16cc\LL	.
.	.	.	.	.	.	16b\	.
.	.	8A\	.	8c/	.	16a\	.
.	.	.	.	.	.	16g\JJ	.
.	.	8A\	.	8c/	.	16f/LL	.
.	.	.	.	.	.	16e-/	.
.	.	8A\J	.	8c/J	.	16d/	.
.	.	.	.	.	.	16c/JJ	.
=83	=83	=83	=83	=83	=83	=83	=83
4B-/	.	8B-\L	.	8d/L	.	16d/LL	.
.	.	.	.	.	.	16f/	.
.	.	8B-\	.	8d/	.	16g/	.
.	.	.	.	.	.	16f/JJ	.
4r	.	8B-\	.	8d/	.	4f/	.
.	.	8B-\J	.	8d/J	.	.	.
2r	.	8B-\L	.	8d/L	.	8r	.
.	.	8B-\	.	8d/	.	8f/L	.
.	.	8B-\	.	8d/	.	8b-/	.
.	.	8B-\J	.	8d/J	.	8dd/J	.
=84	=84	=84	=84	=84	=84	=84	=84
1F	1r	8A\L	.	8e-/L	.	8bX\L	.
.	.	8A\	.	8e-/	.	8cc\J	.
.	.	8A\	.	8e-/	.	4cc\	.
.	.	8A\J	.	8e-/J	.	.	.
.	.	8A\L	.	8c/L	.	16cc\LL	.
.	.	.	.	.	.	16b-\	.
.	.	8A\	.	8c/	.	16a\	.
.	.	.	.	.	.	16g\JJ	.
!	!	!	!	!	!	!LO:LB:g=original	!
.	.	8A\	.	8c/	.	16f/LL	.
.	.	.	.	.	.	16e-/	.
.	.	8A\J	.	8c/J	.	16d/	.
.	.	.	.	.	.	16c/JJ	.
!LO:LB:g=original	!	!	!	!	!	!	!
=85	=85	=85	=85	=85	=85	=85	=85
4B-/	2r	4B-\	.	4d/	.	4d/	.
4r	.	4r	.	4r	.	4r	.
!	!	!LO:TX:t=P:problem:mixed beam	!	!	!LO:DY:b:t=fo:rj	!	!LO:DY:b
2B-/	2b-\	8BB-/L	.	4.gg\	f	4.bb-\	fz
.	.	8B-\	.	.	.	.	.
.	.	8B-\	.	.	.	.	.
.	.	8B-\J	.	16ff\LL	.	16aa\LL	.
.	.	.	.	16ee-\JJ	.	16gg\JJ	.
!	!	!LO:LB:g=original	!	!	!	!	!
=86	=86	=86	=86	=86	=86	=86	=86
!	!	!LO:TX:t=P:problem:mixed beam	!	!	!	!	!
4B-/	4b-\	8FF/L	.	4dd\	.	4ff\	.
.	.	8B-\	.	.	.	.	.
8B-/L	8b-\L	8B-\	.	4r	.	4r	.
8B-/J	8b-\J	8B-\J	.	.	.	.	.
!	!	!LO:TX:t=P:problem:mixed beam	!	!	!	!	!LO:DY:b
2B-/	2b-\	8BB-/L	.	4.gg\	.	4.bb-\	fz
.	.	8B-\	.	.	.	.	.
.	.	8B-\	.	.	.	.	.
.	.	8B-\J	.	16ff\LL	.	16aa\LL	.
.	.	.	.	16ee-\JJ	.	16gg\JJ	.
=87	=87	=87	=87	=87	=87	=87	=87
!	!	!LO:TX:t=P:problem:mixed beam	!	!	!	!	!
4B-/	4b-\	8BB-/L	.	4dd\	.	4ff\	.
.	.	8B-\	.	.	.	.	.
8B-/L	8b-\L	8B-\	.	4r	.	4r	.
8B-/J	8b-\J	8B-\J	.	.	.	.	.
!	!	!LO:TX:t=P:problem:mixed beam	!	!	!	!	!LO:DY:b
2B-/	2b-\	8BB-/L	.	4.gg\	.	4.bb-\	fz
.	.	8B-\	.	.	.	.	.
.	.	8B-\	.	.	.	.	.
.	.	8B-\J	.	16ff\LL	.	16aa\LL	.
.	.	.	.	16ee-\JJ	.	16gg\JJ	.
!	!	!	!	!LO:LB:g=original	!	!	!
=88	=88	=88	=88	=88	=88	=88	=88
*	*	*	*	*Xtremolo	*	*Xtremolo	*
4B-/	4b-\	8BB-/	.	8dd\L	.	8ff\L	.
.	.	8r	.	8dd\	.	8ff\	.
4r	4r	8E-\	.	8cc\	.	8ee-\	.
.	.	8r	.	8cc\J	.	8ee-\J	.
8b-\	8b-\	8F\	.	8b-\L	.	8dd\L	.
8r	8r	8r	.	8b-\	.	8dd\	.
8f/	8cc\	8FF/	.	8a\	.	8cc\	.
8r	8r	8r	.	8a\J	.	8cc\J	.
!	!LO:LB:g=original	!	!	!	!	!LO:LB:g=original	!
=89	=89	=89	=89	=89	=89	=89	=89
4d/	8b-\L	4BB-/	.	4b-\	.	4b-\	.
.	8b-\	.	.	.	.	.	.
4r	8b-\	4r	.	4r	.	4r	.
.	8b-\J	.	.	.	.	.	.
*tremolo	*	*	*	*	*	*	*
!	!	!LO:TX:t=P:problem:mixed beam	!	!	!	!	!LO:DY:b
8B-/L	2b-\	8BB-/L	.	4.gg\	.	4.bb-\	fz
8B-/	.	8B-\	.	.	.	.	.
8B-/	.	8B-\	.	.	.	.	.
8B-/J	.	8B-\J	.	16ff\LL	.	16aa\LL	.
.	.	.	.	16ee-\JJ	.	16gg\JJ	.
*Xtremolo	*	*	*	*	*	*	*
!	!	!LO:LB:g=original	!	!	!	!	!
=90	=90	=90	=90	=90	=90	=90	=90
!	!	!LO:TX:t=P:problem:mixed beam	!	!	!	!	!
4B-/	4b-\	8BB-/L	.	4dd\	.	4ff\	.
.	.	8B-\	.	.	.	.	.
8B-/L	8b-\L	8B-\	.	4r	.	4r	.
8B-/J	8b-\J	8B-\J	.	.	.	.	.
!	!	!LO:TX:t=P:problem:mixed beam	!	!	!	!	!LO:DY:b
2B-/	2b-\	8BB-/L	.	4.gg\	.	4.bb-\	fz
.	.	8B-\	.	.	.	.	.
.	.	8B-\	.	.	.	.	.
.	.	8B-\J	.	16ff\LL	.	16aa\LL	.
.	.	.	.	16ee-\JJ	.	16gg\JJ	.
!LO:LB:g=original	!	!	!	!	!	!	!
=91	=91	=91	=91	=91	=91	=91	=91
!	!	!LO:TX:t=P:problem:mixed beam	!	!	!	!	!
4B-/	4b-\	8BB-/L	.	4dd\	.	4ff\	.
.	.	8B-\	.	.	.	.	.
8B-/L	8b-\L	8B-\	.	4r	.	4r	.
8B-/J	8b-\J	8B-\J	.	.	.	.	.
!	!	!LO:TX:t=P:problem:mixed beam	!	!	!	!	!LO:DY:b
2B-/	2b-\	8BB-/L	.	4.gg\	.	4.bb-\	fz
.	.	8B-\	.	.	.	.	.
.	.	8B-\	.	.	.	.	.
.	.	8B-\J	.	16ff\LL	.	16aa\LL	.
.	.	.	.	16ee-\JJ	.	16gg\JJ	.
!	!	!	!	!LO:LB:g=original	!	!	!
=92	=92	=92	=92	=92	=92	=92	=92
4.B-/	8b-\	8BB-/	.	8dd\L	.	8ff\L	.
.	8r	8r	.	8dd\	.	8ff\	.
.	8cc\	8E-\	.	8cc\	.	8ee-\	.
8r	8r	8r	.	8cc\J	.	8ee-\J	.
8b-\	8dd\	8F\	.	8b-\L	.	8dd\L	.
8r	8r	8r	.	8b-\	.	8dd\	.
8f/	8cc\	8FF/	.	8a\	.	8cc\	.
8r	8r	8r	.	8a\J	.	8cc\J	.
!	!	!	!	!	!	!LO:LB:g=original	!
=93	=93	=93	=93	=93	=93	=93	=93
4d/	4b-\	4BB-/	.	4b-\	.	4b-\	.
4r	4r	4r	.	4r	.	4r	.
*	*	*Xtremolo	*	*	*	*tremolo	*
2r	2r	8F\L	.	2r	.	8ff\L	.
.	.	8F\	.	.	.	8ff\	.
.	.	8F\	.	.	.	8ff\	.
.	.	8F\J	.	.	.	8ff\J	.
!	!	!LO:LB:g=original	!	!	!	!	!
=94	=94	=94	=94	=94	=94	=94	=94
!LO:N:vis=00	!LO:N:vis=00	!	!	!LO:N:vis=00	!	!	!
00r	00r	16D\LL	.	00r	.	16dd\LL	.
.	.	16E-\	.	.	.	16ee-\	.
.	.	16F\	.	.	.	16ff\	.
.	.	16D\JJ	.	.	.	16dd\JJ	.
!	!	!LO:TX:t=P:problem:mixed beam	!	!	!	!	!
.	.	8BB-/L	.	.	.	8b-\L	.
.	.	8B-\J	.	.	.	8bb-\J	.
*	*	*	*	*	*	*Xtremolo	*
.	.	8G\L	.	.	.	8gg\L	.
.	.	8G\	.	.	.	8gg\	.
.	.	8E-\	.	.	.	8ee-\	.
.	.	8E-\J	.	.	.	8ee-\J	.
=95	=95	=95	=95	=95	=95	=95	=95
.	.	8C/L	.	.	.	8cc'>\L	.
.	.	8C/J	.	.	.	8cc'>\J	.
.	.	16F\LL	.	.	.	(>16ff\LL	.
.	.	16E-\	.	.	.	16ee-\	.
.	.	16D\	.	.	.	16dd\	.
.	.	16C\JJ	.	.	.	16cc\JJ)	.
*	*	*tremolo	*	*	*	*tremolo	*
.	.	8F\L	.	.	.	8ff\L	.
.	.	8F\	.	.	.	8ff\	.
.	.	8F\	.	.	.	8ff\	.
.	.	8F\J	.	.	.	8ff\J	.
*	*	*	*	*	*	*Xtremolo	*
=96	=96	=96	=96	=96	=96	=96	=96
.	.	16D\LL	.	.	.	16dd\LL	.
.	.	16E-\	.	.	.	16ee-\	.
.	.	16F\	.	.	.	16ff\	.
.	.	16D\JJ	.	.	.	16dd\JJ	.
!	!	!LO:TX:t=P:problem:mixed beam	!	!	!	!	!
.	.	8BB-/L	.	.	.	8b-\L	.
.	.	8B-\J	.	.	.	8bb-\J	.
*	*	*Xtremolo	*	*	*	*	*
.	.	8G\L	.	.	.	8gg\L	.
.	.	8G\	.	.	.	8gg\	.
.	.	8E-\	.	.	.	8ee-\	.
.	.	8E-\J	.	.	.	8ee-\J	.
!	!	!	!	!	!	!LO:PB:g=original	!
=97	=97	=97	=97	=97	=97	=97	=97
*	*	*	*	*	*	*Xtremolo	*
.	.	8C/L	.	.	.	8cc'>\L	.
.	.	8C/J	.	.	.	8cc'>\J	.
.	.	16F\LL	.	.	.	(>16ff\LL	.
.	.	16E-\	.	.	.	16ee-\	.
.	.	16D\	.	.	.	16dd\	.
.	.	16C\JJ	.	.	.	16cc\JJ)	.
.	.	4BB-/	.	.	.	4b-\	.
.	.	4r	.	.	.	4r	.
!	!LO:LB:g=original	!LO:LB:g=original	!	!	!	!	!
=98	=98	=98	=98	=98	=98	=98	=98
*	*	*tremolo	*	*	*	*	*
!	!	!	!	!	!LO:DY:b:t=f.:rj	!	!
2B-/	1b-	8D\L	.	1b-	f	16bb-\LL	.
.	.	.	.	.	.	16ccc\	.
.	.	8D\	.	.	.	16bb-\	.
.	.	.	.	.	.	16aa\JJ	.
.	.	8D\	.	.	.	16bb-\LL	.
.	.	.	.	.	.	16ccc\	.
.	.	8D\J	.	.	.	16bb-\	.
.	.	.	.	.	.	16aa\JJ	.
2B-/	.	8D\L	.	.	.	4bb-\	.
.	.	8D\	.	.	.	.	.
.	.	8D\	.	.	.	4r	.
.	.	8D\J	.	.	.	.	.
=99	=99	=99	=99	=99	=99	=99	=99
1B-	1b-	8E-\L	.	1b-	.	16gg\LL	.
.	.	.	.	.	.	16aa\	.
.	.	8E-\	.	.	.	16gg\	.
.	.	.	.	.	.	16ff#X\JJ	.
.	.	8E-\	.	.	.	16gg\LL	.
.	.	.	.	.	.	16aa\	.
.	.	8E-\J	.	.	.	16gg\	.
.	.	.	.	.	.	16ff#\JJ	.
.	.	8E-\L	.	.	.	4gg\	.
.	.	8E-\	.	.	.	.	.
.	.	8E-\	.	.	.	4r	.
.	.	8E-\J	.	.	.	.	.
!	!	!	!	!	!	!LO:LB:g=original	!
=100	=100	=100	=100	=100	=100	=100	=100
!	!	!	!	!	!LO:DY:b:t=p&colon;:rj	!	!LO:DY:b
8B-/	8b-\	8D\	.	8dd\	p	(>8ff\L	p
8r	8r	8r	.	8r	.	8dd\J)	.
8f/	8cc\	8E-\	.	8cc\	.	(>8ee-\L	.
8r	8r	8r	.	8r	.	8cc\J)	.
8b-\	8dd\	8F\	.	8b-\	.	(>8dd\L	.
!LO:LB:g=original	!	!	!	!	!	!	!
8r	8r	8r	.	8r	.	8b-\J)	.
8f/	8cc\	8FF/	.	8a\	.	(>8cc\L	.
8r	8r	8r	.	8r	.	8a\J)	.
!	!	!	!	!LO:LB:g=original	!	!	!
=101	=101	=101	=101	=101	=101	=101	=101
!	!	!	!	!	!LO:DY:b	!	!
1B-	1b-	8D\L	.	1b-	f	16bb-\LL	.
.	.	.	.	.	.	16ccc\	.
.	.	8D\	.	.	.	16bb-\	.
.	.	.	.	.	.	16aa\JJ	.
.	.	8D\	.	.	.	16bb-\LL	.
.	.	.	.	.	.	16ccc\	.
.	.	8D\J	.	.	.	16bb-\	.
.	.	.	.	.	.	16aa\JJ	.
.	.	8D\L	.	.	.	4bb-\	.
.	.	8D\	.	.	.	.	.
.	.	8D\	.	.	.	4r	.
.	.	8D\J	.	.	.	.	.
=102	=102	=102	=102	=102	=102	=102	=102
1B-	1b-	8E-\L	.	1b-	.	16gg\LL	.
.	.	.	.	.	.	16aa\	.
.	.	8E-\	.	.	.	16gg\	.
.	.	.	.	.	.	16ff#X\JJ	.
.	.	8E-\	.	.	.	16gg\LL	.
.	.	.	.	.	.	16aa\	.
.	.	8E-\J	.	.	.	16gg\	.
.	.	.	.	.	.	16ff#\JJ	.
.	.	8E-\L	.	.	.	4gg\	.
.	.	8E-\	.	.	.	.	.
.	.	8E-\	.	.	.	4r	.
.	.	8E-\J	.	.	.	.	.
!	!	!	!	!	!	!LO:LB:g=original	!
=103	=103	=103	=103	=103	=103	=103	=103
!	!	!	!	!	!LO:DY:b:rj	!	!
8B-/	8b-\	8D\	.	8dd\	p	(>8ff\L	.
8r	8r	8r	.	8r	.	8dd\J)	.
8f/	8cc\	8E-\	.	8cc\	.	(>8ee-\L	.
8r	8r	8r	.	8r	.	8cc\J)	.
!	!	!LO:LB:g=original	!	!	!	!	!
8b-\	8dd\	8F\	.	8b-\	.	(>8dd\L	.
8r	8r	8r	.	8r	.	8b-\J)	.
8f/	8cc\	8FF/	.	8a\	.	(>8cc\L	.
8r	8r	8r	.	8r	.	8a\J)	.
!	!LO:LB:g=original	!	!	!	!	!	!
=104	=104	=104	=104	=104	=104	=104	=104
8d/	8b-\	4BB-/	.	8b-\	.	8b-\	.
8r	8r	.	.	8r	.	8r	.
8d/	8b-\	4BB-/	.	8d/	.	8b-\	.
8r	8r	.	.	8r	.	8r	.
4d/	4b-\	4BB-/	.	4d/	.	4b-\	.
!	!LO:TX:b:i:t=49	!LO:TX:i:b:t=Valti	!	!	!	!LO:TX:b:i:t=49	!
4r	4r	4r	.	4r	.	4r	.
!LO:TX:b:i:t=49	!	!LO:TX:b:i:t=49	!	!LO:TX:b:i:t=49	!	!	!
==	==	==	==	==	==	==	==
*-	*-	*-	*-	*-	*-	*-	*-
!!!system-decoration: [(g1)][(g2)]
!!!RDF**kern: | = vertical stroke
!!!RDF**kern: > = above
!!!RDF**kern: < = below
!!!ENC: Tomasz Grochalski
!!!END: 2021-06-16
!!!EED: Antoni Szymański
!!!EST: 2021-06-19
